X: 151111
T: MORNING STAR WALTZ
R: Waltz.
%R: waltz
B: James Kerr "Merry Melodies" v.1 p.51 s.1 #11
Z: 2016 John Chambers <jc:trillian.mit.edu>
M: 3/4
L: 1/8
K: G
|:\
g2f2g2 | B6 | d2^c2d2 | G6 |\
[1,3 A2^G2A2 | d6 | B2A2B2 | G6 :|\
[2,4 g2f2e2 | d4B2 | Tf6 | d6 ::\
.B2.A2.A2 | .A2.B2.c2 | .e2.d2.d2 | .d2.e2.f2 |\
[1,3 .a2.g2.g2 | .g2.f2.e2 | .e2.d2.d2 | .d2.c2.B2 :|\
[2,4 g2g2g2 | g6 | a2e2f2 | g4 :|

%%sep 1 1 500
%%sep 1 1 500

